outputs/icons/device/wifi_2_sharp.svg

<svg xmlns="http://www.w3.org/2000/svg" width="1200" height="1200" fill="none"><g clip-path="url(#a)"><path fill="#000" d="M600 200c-234.5 0-446.5 95-600 249l600 601 600-601c-153.5-154-365.5-249-600-249m0 200c-143 0-275 47-382.5 125.5l-71.5-72C275.5 354 433.5 300 600 300s324.5 54 454 153.5L982.5 525C875 447 743 400 600 400"/></g><defs><clipPath id="a"><path fill="#fff" d="M0 0h1200v1200H0z"/></clipPath></defs></svg>

<svg width="1200" height="1200" viewBox="0 0 1200 1200" fill="none" xmlns="http://www.w3.org/2000/svg"><g clip-path="url(#clip0_225_4040)"><path d="M600 200C365.5 200 153.5 295 0 449L600 1050L1200 449C1046.5 295 834.5 200 600 200ZM600 400C457 400 325 447 217.5 525.5L146 453.5C275.5 354 433.5 300 600 300C766.5 300 924.5 354 1054 453.5L982.5 525C875 447 743 400 600 400Z" fill="#1D1E23"/></g><defs><clipPath id="clip0_225_4040"><path width="24" fill="white" d="M0 0H1200V1200H0V0z"/></clipPath></defs></svg>
